packages/icons-svg/home.svg

<?xml version="1.0" standalone="no"?><!DOCTYPE svg PUBLIC "-//W3C//DTD SVG 1.1//EN" "http://www.w3.org/Graphics/SVG/1.1/DTD/svg11.dtd"><svg class="icon" width="200px" height="200.00px" viewBox="0 0 1024 1024" version="1.1" xmlns="http://www.w3.org/2000/svg"><path fill="#333333" d="M761.435897 1024H262.564103c-131.282051 0-236.307692-105.025641-236.307693-236.307692V404.348718c0-52.512821 26.25641-102.4 68.266667-131.282051L467.364103 21.005128c26.25641-18.379487 60.389744-18.379487 89.271794 0l372.841026 252.061539c42.010256 28.882051 68.266667 78.769231 68.266667 131.282051V787.692308c0 131.282051-105.025641 236.307692-236.307693 236.307692zM139.158974 338.707692c-21.005128 15.753846-34.133333 39.384615-34.133333 65.641026V787.692308c0 86.646154 70.892308 157.538462 157.538462 157.538461h498.871794c86.646154 0 157.538462-70.892308 157.538462-157.538461V404.348718c0-26.25641-13.128205-49.887179-34.133333-65.641026L512 86.646154 139.158974 338.707692zM590.769231 735.179487h-157.538462c-21.005128 0-39.384615-18.379487-39.384615-39.384615s18.379487-39.384615 39.384615-39.384616h157.538462c21.005128 0 39.384615 18.379487 39.384615 39.384616s-18.379487 39.384615-39.384615 39.384615z" /></svg>

<svg xmlns="http://www.w3.org/2000/svg" viewBox="0 0 1024 1024"><path fill="#333" d="M761.44 1024h-498.88c-131.28 0-236.31-105.03-236.3-236.31v-383.34c0-52.51 26.26-102.4 68.26-131.28l372.84-252.06c26.26-18.38 60.39-18.38 89.28 0l372.84 252.06c42.01 28.88 68.27 78.77 68.26 131.28v383.34c0 131.28-105.03 236.31-236.3 236.31z m-622.28-685.29c-21 15.75-34.13 39.38-34.13 65.64v383.34c0 86.65 70.89 157.54 157.53 157.54h498.88c86.65 0 157.54-70.89 157.53-157.54v-383.34c0-26.26-13.13-49.89-34.13-65.64l-372.84-252.06-372.84 252.06z m451.61 396.47h-157.54c-21 0-39.38-18.38-39.38-39.38s18.38-39.38 39.38-39.39h157.54c21 0 39.38 18.38 39.38 39.39s-18.38 39.38-39.38 39.38z"/></svg>
